packages/dnb-eufemia/assets/icons/factory_medium.svg

<svg width="24" height="24" viewBox="0 0 24 24" fill="none" xmlns="http://www.w3.org/2000/svg">
<path d="M9 17.25H12M9 20.25H12M15 17.25H18M15 20.25H18M9.005 0.869C10.0371 0.85147 11.0602 1.06394 12 1.491C19.429 4.662 22.5 0.75 22.5 0.75M20.6445 11.0762C21.0076 11.3008 20.9378 11.3884 21 11.5V21.7501C21 22.1479 20.842 22.5294 20.5607 22.8107C20.2794 23.092 19.8978 23.2501 19.5 23.2501H3C2.60218 23.2501 2.22064 23.092 1.93934 22.8107C1.65804 22.5294 1.5 22.1479 1.5 21.7501V13.5001C1.5 13.5001 3.74207 3.00024 4.356 3.00007C5 2.99989 5.44574 3.0006 6.144 3.00007C6.5 2.9998 9 13.5001 9 13.5001C9 13.5001 14.1467 11.0431 14.6445 11.0762C14.7639 11.0842 15 13.5001 15 13.5001C15 13.5001 20.2813 10.8516 20.6445 11.0762Z" stroke="black" stroke-width="1.5" stroke-linecap="round" stroke-linejoin="round"/>
</svg>

<svg width="24" height="24" viewBox="0 0 24 24" fill="none" xmlns="http://www.w3.org/2000/svg"><path d="M9 17.25h3m-3 3h3m3-3h3m-3 3h3M9.005.869A6.954 6.954 0 0 1 12 1.491C19.429 4.662 22.5.75 22.5.75m-1.855 10.326c.363.225.293.312.355.424v10.25a1.5 1.5 0 0 1-1.5 1.5H3a1.5 1.5 0 0 1-1.5-1.5V13.5S3.742 3 4.356 3h1.788C6.5 3 9 13.5 9 13.5s5.147-2.457 5.645-2.424c.119.008.355 2.424.355 2.424s5.281-2.648 5.645-2.424Z" stroke="#000" stroke-width="1.5" stroke-linecap="round" stroke-linejoin="round"/></svg>
